P1
# Created by GIMP version 3.2.0 PNM plug-in
312 162
0000000000000000000000000000000000000000000000000000000000000000000000
0000000000000000000000000000000000000000000000000000000000000000000000
0000000000000000000000000000000000000000000000000000000000000000000000
0000000000000000000000000000000000000000000000000000000000000000000000
0000000000000000000000000000000000000000000000000000000000000000000000
0000000000000000000000000000000000000000000000000000000000000000000000
0000000000000000000000000000000000000000000000000000000000000000000000
0000000000000000000000000000000000000000000000000000000000000000000000
0000000000000000000000000000000000000000000000000000000000000000000000
0000000000000000000000000000000000000000000000000000000000000000000000
0000000000000000000000000000000000000000000000000000000000000000000000
0000000000000000000000000000000000000000000000000000000000000000000000
0000000000000000000000000000000000000000000000000000000000000000000000
0000000000000000000000000000000000000000000000000000000000000000000000
0000000000000000000000000000000000000000000000000000000000000000000000
0000000000000000000000000000000000000000000000000000000000000000000000
0000000000000000000000000000000000000000000000000000000000000000000000
0000000000000000000000000000000000000000000000000000000000000000000000
0000000000000000000000000000000000000000000000000000000000000000000000
0000000000000000000000000000000000000000000000000000000000000000000000
0000000000000000000000000000000000000000000000000000000000000000000000
0000000000000000000000000000000000000000000000000000000000000000000000
0000000000000000000000000000000000000000000000000000000000000000000000
0000000000000000000000000000000000000000000000000000000000000000000000
0000000000000000000000000000000000000000000000000000000000000000000000
0000000000000000000000000000000000000000000000000000000000000000000000
0000000000000000000000000000000000000000000000000000000000000000000000
0000000000000000000000000000000000000000000000000000000000000000000000
0000000000000000000000000000000000000000000000000000000000000000000000
0000000000000000000000000000000000000000000000000000000000000000000000
0000000000000000000000000000000000000000000000000000000000000000000000
0000000000000000000000000000000000000000000000000000000000000000000000
0000000000000000000000000000000000000000000000000000000000000000000000
0000000000000000000000000000000000000000000000000000000000000000000000
0000000000000000000000000000000000000000000000000000000000000000000000
0000000000000000000000000000000000000000000000000000000000000000000000
0000000000000000000000000000000000000000000000000000000000000000000000
0000000000000000000000000000000000000000000000000000000000000000000000
0000000000000000000000000000000000000000000000000000000000000000000000
0000000000000000000000000000000000000000000000000000000000000000000000
0000000000000000000000000000000000000000000000000000000000000000000000
0000000000000000000000000000000000000000000000000000000000000000000000
0000000000000000000000000000000000000000000000000000000000000000000000
0000000000000000000000000000000000000000000000000000000000000000000000
0000000000000000000000000000000000000000000000000000000000000000000000
0000000000000000000000000000000000000000000000000000000000000000000000
0000000000000000000000000000000000000000000000000000000000000000000000
0000000000000000000000000000000000000000000000000000000000000000000000
0000000000000000000000000000000000000000000000000000000000000000000000
0000000000000000000000000000000000000000000000000000000000000000000000
0000000000000000000000000000000000000000000000000000000000000000000000
0000000000000000000000000000000000000000000000000000000000000000000000
0000000000000000000000000000000000000000000000000000000000000000000000
0000000000000000000000000000000000000000000000000000000000000000000000
0000000000000000000000000000000000000000000000000000000000000000000000
0000000000000000000000000000000000000000000000000000000000000000000000
0000000000000000000000000000000000000000000000000000000000000000000000
0000000000000000000000000000000000000000000000000000000000000000000000
0000000000000000000000000000000000000000000000000000000000000000000000
0000000000000000000000000000000000000000000000000000000000000000000000
0000000000000000000000000000000000000000000000000000000000000000000000
0000000000000000000000000000000000000000000000000000000000000000000000
0000000000000000000000000000000000000000000000000000000000000000000000
0000000000000000000000000000000000000000000000000000000000000000000000
0000000000000000000000000000000000000000000000000000000000000000000000
0000000000000000000000000000000000000000000000000000000000000000000000
0000000000000000000000000000000000000000000000000000000000000000000000
0000000000000000000000000000000000000000000000000000000000000000000000
0000000000000000000000000000000000000000000000000000000000000000000000
0000000000000000000000000000000000000000000000000000000000000000000000
0000000000000000000000000000000000000000000000000000000000000000000000
0000000000000000000000000000000000000000000000000000000000000000000000
0000000000000000000000000000000000000000000000000000000000000000000000
0000000000000000000000000000000000000000000000000000000000000000000000
0000000000000000000000000000000000000000000000000000000000000000000000
0000000000000000000000000000000000000000000000000000000000000000000000
0000000000000000000000000000000000000000000000000000000000000000000000
0000000000000000000000000000000000000000000000000000000000000000000000
0000000000000000000000000000000000000000000000000000000000000000000000
0000000000000000000000000000000000000000000000000000000000000000000000
0000000000000000000000000000000000000000000000000000000000000000000000
0000000000000000000000000000000000000000000000000000000000000000000000
0000000000000000000000000000000000000000000000000000000000000000000000
0000000000000000000000000000000000000000000000000000000000000000000000
0000000000000000000000000000000000000000000000000000000000000000000000
0000000000000000000000000000000000000000000000000000000000000000000000
0000000000000000000000000000000000000000000000000000000000000000000000
0000000000000000000000000000000000000000000000000000000000000000000000
0000000000000000000000000000000000000000000000000000000000000000000000
0000000000000000000000000000000000000000000000000000000000000000000000
0000000000000000000000000000000000000000000000000000000000000000000000
0000000000000000000000000000000000000000000000000000000000000000000000
0000000000000000000000000000000000000000000000000000000000000000000000
0000000000000000000000000000000000000000000000000000000000000000000000
0000000000000000000000000000000000000000000000000000000000000000000000
0000000000000000000000000000000000000000000000000000000000000000000000
0000000000000000000000000000000000000000000000000000000000000000000000
0000000000000000000000000000000000000000000000000000000000000000000000
0000000000000000000000000000000000000000000000000000000000000000000000
0000000000000000000000000000000000000000000000000000000000000000000000
0000000000000000000000000000000000000000000000000000000000000000000000
0000000000000000000000000000000000000000000000000000000000000000000000
0000000000000000000000000000000000000000000000000000000000000000000000
0000000000000000000000000000000000000000000000000000000000000000000000
0000000000000000000000000000000000000000000000000000001111111111111111
1111011100000000000000000000000000000000000000000000000000000000000000
0000000000000000000000000000000000000000000000000000000000000000000000
0000000000000000000000000000000000000000000000000000000000000000000000
0000000000000000000000000000000000000000000000000000000000000000000000
0000000011111111111111111111110111111111111111001000000000000000000000
0000000000000000000000000000000000000000000000000000000000000000000000
0000000000000000000000000000000000000000000000000000000000000000000000
0000000000000000000000000000000000000000000000000000000000000000000000
0000000000000000000000000000000000011011111111110111011111110111011111
1111111111111110000000000000000000000000000000000000000000000000000000
0000000000000000000000000000000000000000000000000000000000000000000000
0000000000000000000000000000000000000000000000000000000000000000000000
0000000000000000000000000000000000000000000000000000000000000000110111
0111011101110111011101110111011101110111111111111111000000000000000000
0000000000000000000000000000000000000000000000000000000000000000000000
0000000000000000000000000000000000000000000000000000000000000000000000
0000000000000000000000000000000000000000000000000000000000000000000000
0000000000000000000000001111110111111101110111011101110111011101110111
0111011111111111110000000000000000000000000000000000000000000000000000
0000000000000000000000000000000000000000000000000000000000000000000000
0000000000000000000000000000000000000000000000000000000000000000000000
0000000000000000000000000000000000000000000000000000001111111111011101
1101111111111101110111011101110111011101111111111111100000000000000000
0000000000000000000000000000000000000000000000000000000000000000000000
0000000000000000000000000000000000000000000000000000000000000000000000
0000000000000000000000000000000000000000000000000000000000000000000000
0000000000000001101111110111111111110100001111111111111111111111011101
1101110111011101110000000000000000000000000000000000000000000000000000
0000000000000000000000000000000000000000000000000000000000000000000000
0000000000000000000000000000000000000000000000000000000000000000000000
0000000000000000000000000000000000000000000000110110111111100000000000
0100000000000000000000001111111111110111011101111111100000000000000000
0000000000000000000000000000000000000000000000000000000000000000000000
0000000000000000000000000000000000000000000000000000000000000000000000
0000000000000000000000000000000000000000000000000000000000000000000000
0000000010101010111000000100000010000000100000001000000010100000011111
1111011101110110000000000000000000000000000000000000000000000000000000
0000000000000000000000000000000000000000000000000000000000000000000000
0000000000000000000000000000000000000000000000000000000000000000000000
0000000000000000000000000000000000000000101100110111100001111111111111
1111111111111111000000000000000001111111110111011100000000000000000000
0000000000000000000000000000000000000000000000000000000000000000000000
0000000000000000000000000000000000000000000000000000000000000000000000
0000000000000000000000000000000000000000000000000000000000000000000010
0111011011101111111000000000001000000010000000101111111111100010000000
1011111111111110000000000000000000000000000000000000000000000000000000
0000000000000000000000000000000000000000000000000000000000000000000000
0000000000000000000000000000000000000000000000000000000000000000000000
0000000000000000000000000000010001001101110011110001111111111111111111
1111111111000000100001111110000100001111110111111100000000000000000000
0000000000000000000000000000000000000000000000000000000000000000000000
0000000000000000000000000000000000000000000000000000000000000000000000
0000000000000000000000000000000000000000000000000000000000001010100111
1100010110111111111111111111111111111111111111111111110000011111100100
0111110111111110000000000000000000000000000000000000000000000000000000
0000000000000000000000000000000000000000000000000000000000000000000000
0000000000000000000000000000000000000000000000000000000000000000000000
0000000000000000000001100001000100001111011111111100000000000000000000
0001111111111111111111000001111100000011111111111000000000000000000000
0000000000000000000000000000000000000000000000000000000000000000000000
0000000000000000000000000000000000000000000000000000000000000000000000
0000000000000000000000000000000000000000000000000000100001000101000101
1011111111100000001000000010000000100000000000001111111111100000111010
0010111111111100000000000000000000000000000000000000000000000000000000
0000000000000000000000000000000000000000000000000000000000000000000000
0000000000000000000000000000000000000000000000000000000000000000000000
0000000000010100010001010001111101111110111000000000000000000000000000
0000000001101101111111111100011110000101111111110000000000000000000000
0000000000000000000000000000000000000000000000000000000000000000000000
0000000000000000000000000000000000000000000000000000000000000000000000
0000000000000000000000000000000000000000001100010001000000100110111001
0011000010000000100000001000000000001000010111000010111111111000011110
0010101111110000000000000000000000000000000000000000000000000000000000
0000000000000000000000000000000000000000000000000000000000000000000000
0000000000000000000000000000000000000000000000000000000000000000000000
0001000100010000000111100111001101110000000000000000000000000000100000
0011011000001011111111111110001111000110111111000000000000000000000000
0000000000000000000000000000000000000000000000000000000000000000000000
0000000000000000000000000000000000000000000000000000000000000000000000
0000000000000000000000000000000000101100010001100010010111110010111010
0000001000000010000000100000000000100110000101111000000111111100011100
0010101111000000000000000000000000000000000000000000000000000000000000
0000000000000000000000000000000000000000000000000000000000000000000000
0000000000000000000000000000000000000000000000000000000000000000011100
0100010000011110111100011011100000000000000000000000000000000000001011
1001010111100000100001111110001110000101011100000000000000000000000000
0000000000000000000000000000000000000000000000000000000000000000000000
0000000000000000000000000000000000000000000000000000000000000000000000
0000000000000000000000001001001100010010001001011110000101110000001000
0000100000001000000010000001101100001101110000000000100011111100011100
0010111100000000000000000000000000000000000000000000000000000000000000
0000000000000000000000000000000000000000000000000000000000000000000000
0000000000000000000000000000000000000000000000000000000111000100010100
0011111011110000110110000000000000000000000000000000000000010011000010
1011000000000000000001111110001110000101110000000000000000000000000000
0000000000000000011111000000000000000000000000000000000000000000000000
0000000000000000000000000000000000000000000000000000000000000000000000
0000000000000000111001000100000001001101111000101011100010000000100000
0010000000100000000001011110001011110000001000000010000111111100011100
0010110000000000000000000000000000000000000000011111111100000000000000
0000000000000000000000000000000000000000000000000000000000000000000000
0000000000000000000000000000000000000000000000010011000100100000111100
1111000001101100000000000000000000000000101111110000110110000010111000
0000000000000000000111111110001110000011000000000000000000000000000000
0000000111111111111100000000000000000000000000000000000000000000000000
0000000000000000000000000000000000000000000000000000000000000000000000
0000001000110001000100000100101111101000010111100000001000000010000000
1000111111100010111000011111100010000000100000001000110111111100011110
0011111111111111111111111111111111111111011101110111010000000000000000
0000000000000000000000000000000000000000000000000000000000000000000000
0000000000000000000000000000000000000100111111000100000011110111110000
0011011000000000000000000000000000110111111100101110000101110000000000
0000000000000001111101111110001110001111001000100010001000100010001111
0111101111111111100000000000000000000000000000000000000000000000000000
0000000000000000000000000000000000000000000000000000000000001111111111
1111111111011000010010111110000000101111000010000000100000001000010111
1111110110110010110111100000001000000010000001001011111011111100011000
1101001000100010001000100010001011110001011101110110000000000000000000
0000000000000000000000000000000000000000000000000000000001111111111111
1111111111111111111111010111111101010101111110011111011110000000011011
0000000000000000000000000001110111110111001111101001110000000000000000
0000000000101111011001111110011010101011011101110111011101110111011101
0011111111111100000000000000000000000000000000000000000000000000000000
0011111111111010100010001000100011000000111111111010101111001111111010
1011101110101011111000001011011100010000001000000010000000110111111111
1101101011101110000010000000100000111111110111111101101011111001100101
0111011101110111011101110111011101000111011101111000000000000000000000
0000000000000000000000101111111111000000000000000000000000000000001111
1111110111011101010101111101111101110111111101111011111111110111111111
1111111111111111111110101111111111110111111011111111111111111111110000
0000111111111101010101111001101010011101110111011101110111011101110100
0111111111111000000000000000000000000000000000000000000000010010001000
1000100010001010000001111111111101110111011101111111101011111011101110
1000110111000111000110111000000010000000100000001001111111111111100111
1111011100100000001000000010111111111110111111101010101011100111010101
1101110111011101110111011101111101010111011100000000000000000000000000
0000000000000011000010000000010101000101010101011111111111011101010111
0111011101010101011111010111101111111111111110001101101111111111111111
1111111111111010111111111111110111110111111111111111111111111111111111
1101111111010101010111100111111111111111111111111111111111111111111111
1111111000000000000000000000000000000000000001000101100010001010101010
1011111111111101110111011101110010101010101010101011111010101110111101
1110111110011101111111111111111111111111111111011111111111110111111101
1111111111111111111111111111101011101111111010101010101110011010100010
0010001000100010001000100010111101110100000000000000000000000000000000
0000001010101000010101010101011111111111011100110101010101010101010101
0101110101010111111101011111011111111101110111011111111111111111111111
1111111011111111111111111011101111111111111111111111111111111101010110
1111101101010101010110010000000000000000000000000000000000000001111110
0000000000000000000000000000000000000111010110101010101010111111111111
1111101010101010101010101010101010110110101010101111111010101111111111
1111011011111111111111111111111111111111111111111111010101111011111111
1111111111111111111110101010101101110110101110101010111011001000100010
0010001000100010001000100010110000000000000000000000000000000000000011
1010110101010101011111111111111101110111011111111111111111111111111111
1111111111111111111111111111111111110111111111111111111111111111111111
1111111111111111111111101111111111111111111111111111110101010111110001
0111101110110101011111111111111111111111111111111111111111110000000000
0000000000000000000000000000001101011010101010101110001000100010001000
1000100010001000100010001000100011111000100010001000111111111111111111
0010001000100010001000100010001000100010001000100010001101100010001000
1000100010001010001000100100111011101110111011101011111111111111111111
1111111111111111111000000000000000000000000000000000000000000110111111
1111100000000000000000000000000000000000000000000000000000000000010000
0000000000000000000000111111111011111111111111111111111111111111111111
1111111111111111111111111111111111111111111111111111111111110101101110
1110111011010111111111111111111111111111111111111000000000000000000000
0000000000000000011111111110001000100010001000100010001000100010001000
1000100010001000100010001001100010001000100010001000111111011110100010
0010001000100010001000100010001000100010001000100011001000100010001000
1000100010001000100010101011101010111011101110101111111111111111111111
1111111100000000000000000000000000000000000000001110000100000000000000
0000000000000000000000000000000010000000000000000000000000100000000000
0000000000000001111100000000000000000000000000000000000000000000000000
0000000000000010000000000000000000000000000000000000000100010101010111
1011101101011111111111111111111111100000000000000000000000000000000000
0000000011101000101000100010001000100010001000100010001000100010001000
1000100010001000110111001000100010001000100010001000100010001000100010
0010001000100010001000100010001000100010001000100010001000100010001000
1000100010101010100000000000101010101110111010111111111111111111100000
0000000000000000000000000000000000000001010000011000000000000000000000
0001001000000000000000000100001000100010001000110001010100100010000000
0001000010001000000000000000000000000000000000000000000000000000000000
0000000010000000000000000000000000000000000000000001000100010000010101
0110110101111111111111111110000000000000000000000000000000000000000000
1001100011001000101010101010101010101000101000100010001010101010101010
0010101010101110101010101010101010101010101000100010100010001000100010
0010001000100010001010101010111000100010101000100010001000101010101000
1000100010001000101000001000100010101011101111111111111111101000000000
0000000000000000000000000000000100110101110101010101010101010101010000
1000100000000000000101010101010101010101010111010101010101010101010101
0101001000100010000000000000010101010101000000001101010101010101100000
0010000000000101010101010101000000000000000000000000010101000000000001
1011011111111111111101011100000000000000000000000000000000000010001010
1111101010101010101010100110001000100010001000100010101010101010101010
1010101010101010101010101010101010101010101010101010101010101010101010
1010101000111110101010111111101001101010101010101010101000000010001000
1000100010001000101010101000100010101010111111111111001000110000000000
0000000000000000000000001001111101010101010101010101010110001000000000
0000000000000001010101010101010101010111010101010101010101010101010101
0101010101010101010101010101010101010101011111111111111111111001111101
0101010101010101100000000000000000000000000000000001010101000000000001
0101111110111110000000100000000000000000000000000000000100110111011101
1101101010101010100010100010101010100010001000100010101010101010101010
1010101010101010101010101010101010101010101010101010101010101010101010
1010111111111111111111101011101010101111011101101110001000100010001000
1000100010001010101010101000100010101111111111111000100100000000000000
0000000000000000010011110111110111011101010101010000000011111111010111
1000000000000101010101010101010111010101010101010101010101010101010101
0101010101010101010101010101010101010101111111111100110101010101010111
0110110101010000000000000000000000000000000000000101010100000000000100
1111101111111000001100000000000000000000000000001001111111110111011101
1010101010100010011101110111011101001010001000101010101010101010101010
1010101010101010101010101010101010101010101010101010101010101010101010
1010101111111111101011011101101111111000000000100010001000100010001000
1000100010001010101010001000100011111111111110001001100000000000000000
0000000101100101110101110111011101110100000000011101110111011101110101
0000000001010101010101010111010101010101010101011101110111010101010101
0101010101010101010101010101010101010101010101010111011101110110111010
1001000000000000000011101110100000000000000001010101010000000000000111
1111111000000010000000000000000000011110101011111101110111011101110111
0010001011011101110111011101110111100010001010110111011101110111011101
1101110111011101110111011101110111011010101010101010101010111101110111
0110111101110111001101111111110010000010001010111011101110111011101000
1000100010101011101110001000000011111111100010110000000000000000011010
0101001111011101110111011101110100100001011101111111111111110111011010
0000111111110111011101111111111111110111011101110111011101110111011101
1101110101010101110111011101110111011111111101111101111011110101000000
0000001110111111111111111011000000000000001010101110110100000001000111
1100000001110000000000000011000011101011111111011111011101110111000011
1111011111111111111111110111011000100110111111111010101111110111010111
1101011101110111011101110111011101110111011101110111011001110111010111
0111010111011111110110101001001001111110111111111111111111101010001000
0001010101101110111011100000001111111000111111100000000001100000110101
1111011111111111011101110100000111011111111111111111111111011100000001
0111101110111111011110111011001111111111111111111111111111111111111111
1111011101111111111111111111111111110111011111101101010110101000101101
1111111111111111111111111110000000001010110110111011101100010001110011
1001010001100000001010100011101111011101110111011101110110000111011111
1111111111111111111111010010001010101000111110101011111111101110101101
1101110111011101110111011101110111011101110111011101110111011101110111
1010111100101010100101000111111111111111111111111111111110100010001000
0101111110111011101000000000100011011011001100000101000010110101111111
1111111111111111110001110111111111111111111111111111111101100000010101
0101010111010100010010001000010000001000010101010101010010010000101111
1111110111111111111111011101010101110101010101110110100011101111111111
1111111111111111111111100000001000110101111011101110100100000000001101
0100011000011010000011101111110111011101110111110110110111111111111101
1101110111111111111101100011101010101010101010100010001010101010101000
1010100010001010101010101010100010101010101010101010101010101010101010
1010101111111111011011111111111110111011101111111111111100100010110101
1101111011101110110100001000111010100101000101000000010100111111111111
1111111101111101111111111111011111111111011111111101111000000101010000
0111000101110101010000010001000100010101001101010011010101110000000101
0101010101010101000101010101010101010111011111111011111111111110111111
1111101111111110110000000000101101110111101110111111110000111101010000
1000011010001000110101010101010101010101110101110111111111111111111111
1111011111111101011000101010101010011010101010001010101010001010101010
0010001010100010001000101010101010100010101010101010101000111010101010
1111111111111011111111111111111111111110111111111011001000100100110111
1101111110101101101111111010100101000111010001000111111111111111111111
1111111111111111111111111111111111111111111111110100010100000100001001
0100000000010100010100010101000011010101100001010101010010001001000011
0000010100010101010101010101010111111111111111111111111111111111111111
1111111111111110000000101101110111111111111111110111011101010000100001
1110100010000101010101010101010101011101111111111111111111111111111111
1111111111111110101000100010011010101010101010101010001000101010001010
1010101010101010101010101000101010101000101010101010101010001011011111
1110111111111111111111111111111111111111111111110010000100110111011101
1110110111011111111010000101000111110100000000000000101010101010100101
1111111101111111111111111111111111111111110100010101110010001100110100
0111000000100010011001010101001000100001001000100010010101010101010101
0101010110000011010101011111111111111111111011111111111111111111111111
1111111011100000001111111111111111111111111111011101010010110001111111
0101010101010100000000000000001101111101111111111100000000111111110110
1111110010101010100010011000101010001010101010001010100010001010100010
1010001000100010101010101010001010100010101011101010101011111111111011
1110111111111110000000011111111011011111111000101100111101110111011101
1101111111111010010111000011111111111111111111010101010101010101111111
1111111111000101010000011111110111111110000100000110001000100101001000
1001100101010101010101010101010111001000100010001000100010010101100010
0010000100110101011111111110111111111111111110001010100000111111101111
1111011000000101111111111111111111111111011101001011110000011111111111
1111111101010101010101111111111101111111001010111110100001111111111111
0110001010100010011000101010101010100010001000100010001000101010001010
1010100010001000100010101000101010001011100010101101111111111111111011
1111100101011111010000111111111111101110001011110111011101110111011011
1111110010111111000000111111111111111111010101010101011101111101111111
1001011111111111010011111111111111001000100010001100100010001000100010
0010001000100010001000010101001000100001010101010101010101010010001000
1000100010111111111110111110111111110010111111111110100111111111111111
1100001011111111111111111111111111110101111111110000000111111111111111
1101010101010101111111111111111100111011111111111010011111001111011000
1000100010011000100010001000100010001000100010001000100010001000100010
0010001000100010001000100010001010100010011111111111111111111111111001
1101111111111101001111100111101101100010101010101010110101010101010111
1111111111000000000101110111011101010101010101010111111101111110011010
1111111101010101111111111111011111111111101111111111111111111111101000
1000100010001000100010001000100010001000100010001000100010001001100010
0111011111111111111110111111001101011111111010101011111111111110111110
0111111111111111100000000000001111111111100000000000010111011101110101
0101010101111111011111111010110101100110101110001111011111111101110111
0111111101110111011101110111111111111111111111111111111111111111111110
1000100010001000100011001100100011011111111110111110111111110101101011
0011010111000111101111111111101011110111011101101101010101010111111111
1100000000000000111111011101101010101010100111111111111101011110101011
1101110100111111011111011111111111111101110111011101110111011101110111
0111011101110111011101110111011111111111111111111111101111111111011111
1111111111111111111110101111010101111011101001111110111110110100111111
0111011101110101010101011111111110000000000000000111111111111111111111
1111111111011111110011111111111101111110101111111111111101111111011111
0111010111011101110111011101110111011101110111011101110111011101110111
0111011101111111110111011101111111111111111110111111100111111111111011
1111010111111111111111111011111111011101110101010101010111111111000000
0000000000001111111111111111111111111111111111111001011100111001110011
1100011111011111111111110111111101111111111111110111011101110111011101
1101110111011101110111011101110111011101110111011111111111111111111111
0111111111111100101110011100111001111000111110111111110110000111011101
1101110101010101011111110000000000000000000001111111111111111111110111
1111011111101011110110111101011110100111111111111101111111011101110111
0111011101110111011101110111011101110111011101110111011101110111011101
1101110111011101111111011111111111111110111111010111101101111010111101
0011111111111111110001110111011101110101010101010101100000000000000000
0000000111111111111111111111111111111111111001111111011001101111110101
1111011111011101111111111111111111011101111111111111111111111111111111
1111011101111111111111111111111111111111111111111111111111111111111111
1111111100111111101100110111111010111110111110110111110111011101110101
0101010101011100000000000000000000000000001111111111111111011000111100
1111101010101111011011101010100111111111111101111111111111011111010111
0111011101110101110111110101111101110111111101110111010101110111011101
1101110111011111111111111101111110011111010101011110110111010101001111
1111111111110111110111011101111010101010101111111100000000000000000000
0000011101111111111110000011111111111001110101010110110101010101111101
1111111111111111111111111111111111111111111111111111111101111111111111
1111111111011111111111111111111111111111111111111111111111111111111111
1100111010101011011010101010111110111111110111011111011111111111111111
0111010101000000000000000000000000000001110111011101100000111101111110
1010101101100111101011100111111111111101111111111101111111111111111111
1111111111111111011101110111111111110111011101111111111111110111011111
1111111111111111111101111110111111010101011011001111010111001111111111
1111110111110111011101101011111111011111000000000000000000000000000000
1010110111011100000011111111111001011111111111111111010101111101111101
1111111111111101110111111111111111111111111111111111111111111111111111
1111111111111111111111111111111111111111111111111111101111111111110010
1111111111111111101010111110111110110111111111111111111111111111111111
0000000000000000000000000000000001111111011110000000111100111110001011
1001110110011111100111111111111010111111111111111111111111111111110111
0111011111111111011101111111111111111111011101111111011111111111111111
1111111111110111111110011111000101110011101100111111001111111111111111
1111011111110111111111111100000000000000000000000000000000000000001111
1111111000000011111111111101011111011011101111010011111101111101001111
1111111111111111111111111111111111111111111111111101111111111111111111
1111111111111111111111111111111111111111111110111111111111111010111110
1101110111101001111110111110110111011111011111111111110000000000000000
0000000000000000000000000000000000000000000000011101111111001011111111
0111111110101111111111111111010111011101110111011101110111011101110111
0111011101110111011101110111011101110111011101110111011101110111011101
1101111111101110111111100101111111101111111101011111111111101011011111
1111111111000000000000000000000000000000000000000000000000000000000000
0000000001111111111110010111111010111111010111111111111101111111111111
1111111111111111111111111111111111111111111111111111111111111111111111
1111111111111111111111111111111111111111101111111111111100101111110101
1111101011111111111110011110000000000000000000000000000000000000000000
0000000000000000000000000000000000000000011101111111100010111101010111
1010011111111111101111011111111111111111111111111111111111111111111111
1111111111111111111111111111111111111111111111111111111111111111111110
1111111110111111110001011110101011110100111111111111000000000000000000
0000000000000000000000000000000000000000000000000000000000000000000000
0000111101111111000101111010111101001111111111110111110000000000000000
0000000000000000000000000000000000000000000000000000000000000000000000
0000000000000000000000000000000001111011111011111110001011110101111010
0111111111111100000000000000000000000000000000000000000000000000000000
0000000000000000000000000000000000001111111111111000101011011010100111
1111011111111110000000000000000000000000000000000000000000000000000000
0000000000000000000000000000000000000000000000000000000000000000001111
1111111111111100010101101101010011111110111110000000000000000000000000
0000000000000000000000000000001000100010001000100010001000100010001011
1101111111110001010111010100111111111111110110001000100010001000100010
0010001000100010001000100010001000100010001000100010001000100010001000
1000100010001000100010001000101111111011111111100010101110101001111111
1111111000100010001000100010001000100010001000100010001000001000100010
0010001000100010001000100010001111110101111111000010101000111111111111
1110110010001000100010001000100010001000100010001000100010001000100010
0010001000100010001000100010001000100010001000100010001000100011101111
1010111111100001010100011111111111111100100010001000100010001000100010
0010001000100010001010001001111111111111111111111111111111111111111111
1111111111000000001111111111011111111111111111111111111111111111111111
1111111111111111111111111111111111111111111111111111111111111111111111
1111111111111111111111111111111111111111111110000000011111111110111111
1111111111111111111111111111111111111111111111001000001001010101010101
0101010101010101010101010111110111111111111111111111111111111111110101
0101010101010101010101010101010101010101010101010101010101010101010101
0101010101010101010101010101010101010101010101010101010101010111101111
1111111111111111111111111111111101010101010101010101010101010101010101
0101010101001010011111111111111111111111111111111111111111111111011111
1111111111111111111111111111111111111111111111111111111111111111111111
1111111111111111111111111111111111111111111111111111111111111111111111
1111111111111111111111111111101111111111111111111111111111111111111111
1111111111111111111111111111111111111111111100001101010101010101010101
0101010101010101010101111111010111111111111111111011011111010101010101
0101010101010101010101010101010101010101010101010101010101010101010101
0101010101010101010101010101010101010101010101010101010101111110101111
1111111111111101101111110101010101010101010101010101010101010101010101
0101011010111111111111111111111111111111111111111111111111011110101111
1111111110110111111111111111111111111111111111111111111111111111111111
1111111111111111111111111111111111111111111111111111111111111111111111
1111111111111111111111101111010111111111111101101111111111111111111111
1111111111111111111111111111111111111110000101010101010101010101010101
0101010101010101011111011101010101010101010111111101010101010101010101
0101010101010101010101010101010101010101010101010101010101010101010101
0101010101010101010101010101010101010101010101010101011110111010101010
1010101011111111010101010101010101010101010101010101010101010101010101
0010111111111111111111111111111111111111111111111111111101110010101010
1101111111111111111111111111111111111111111111111111111111111111111111
1111111111111111111111111111111111111111111111111111111111111111111111
1111111111111111111110111001010101011011111111111111111111111111111111
1111111111111111111111111111111110001101010101010101010101010101010101
0101010101010111111101110111011101111111110101010101010101010101010101
0101010101010101010101010101010101010101010101010101010101010101010101
0101010101010101010101010101010101010101010101010111111011101110111011
1111111101010101010101010101010101010101010101010101010101010101100001
1111111111111111111111111111111111111111111111111111111111011101111111
1111111111111111111111111111111111111111111111111111111111111111111111
1111111111111111111111111111111111111111111111111111111111111111111111
1111111111111111111111101110111111111111111111111111111111111111111111
1111111111111111111111111100001001010101010101010101010101010101010101
0101010101011111111111111111111111010101010101010101010101010101010101
0101010101010101010101010101010101010101010101010101010101010101010101
0101010101010101010101010101010101010101010101111111111111111111111101
0101010101010101010101010101010101010101010101010101010100100000100111
1111111111111111111111111111111111111111111111111111111111111111111111
1111111111111111111111111111111111111111111111111111111111111111111111
1111111111111111111111111111111111111111111111111111111111111111111111
1111111111111111111111111111111111111111111111111111111111111111111111
1111111111111111001000000000100010001000100010001000100010001000100010
0010001000111111111110100010001000100010001000100010001000100010001000
1000100010001000100010001000100010001000100010001000100010001000100010
0010001000100010001000100010001000100010001000111111111100100010001000
1000100010001000100010001000100010001000100010001000000000000010001000
1000100010001000100010001000100010001000100010001000100010001000100010
0010001000100010001000100010001000100010001000100010001000100010001000
1000100010001000100010001000100010001000100010001000100010001000100010
0010001000100010001000100010001000100010001000100010001000100010001000
1000100010000001000000000000000000000000000000000000000000000000000000
0000000000000000000000000000000000000000000000000000000000000000000000
0000000000000000000000000000000000000000000000000000000000000000000000
0000000000000000000000000000000000000000000000000000000000000000000000
0000000000000000000000000000000000000000000000000000000000000000000000
0000000000000000000000000000000000000000000000000000000000000000000000
0000000000000000000000000000000000000000000000000000000000000000000000
0000000000000000000000000000000000000000000000000000000000000000000000
0000000000000000000000000000000000000000000000000000000000000000000000
0000000000000000000000000000000000000000000000000000000000000000000000
0000000000000000000000000000000000000000000000000000000000000000000000
0000000000000000000000000000000000000000000000000000000000000000000000
0000000000000000000000000000000000000000000000000000000000000000000000
0000000000000000000000000000000000000000000000000000000000000000000000
0000000000000000000000000000000000000000000000000000000000000000000000
0000000000000000000000000000000000000000000000000000000000000000000000
0000000000000000000000000000000000000000000000000000000000000000000000
0000000000000000000000000000000000000000000000000000000000000000000000
0000000000000000000000000000000000000000000000000000000000000000000000
0000000000000000000000000000000000000000000000000000000000000000000000
0000000000000000000000000000000000000000000000000000000000000000000000
0000000000000000000000000000000000000000000000000000000000000000000000
0000000000000000000000000000000000000000000000000000000000000000000000
0000000000000000000000000000000000000000000000000000000000000000000000
0000000000000000000000000000000000000000000000000000000000000000000000
0000000000000000000000000000000000000000000000000000000000000000000000
0000000000000000000000000000000000000000000000000000000000000000000000
0000000000000000000000000000000000000000000000000000000000000000000000
0000000000000000000000000000000000000000000000000000000000000000000000
0000000000000000000000000000000000000000000000000000000000000000000000
0000000000000000000000000000000000000000000000000000000000000000000000
0000000000000000000000000000000000000000000000000000000000000000000000
0000000000000000000000000000000000000000000000000000000000000000000000
0000000000000000000000000000000000000000000000000000000000000000000000
0000000000000000000000000000000000000000000000000000000000000000000000
0000000000000000000000000000000000000000000000000000000000000000000000
0000000000000000000000000000000000000000000000000000000000000000000000
0000000000000000000000000000000000000000000000000000000000000000000000
0000000000000000000000000000000000000000000000000000000000000000000000
0000000000000000000000000000000000000000000000000000000000000000000000
0000000000000000000000000000000000000000000000000000000000000000000000
0000000000000000000000000000000000000000000000000000000000000000000000
0000000000000000000000000000000000000000000000000000000000000000000000
0000000000000000000000000000000000000000000000000000000000000000000000
0000000000000000000000000000000000000000000000000000000000000000000000
0000000000000000000000000000000000000000000000000000000000000000000000
0000000000000000000000000000000000000000000000000000000000000000000000
0000000000000000000000000000000000000000000000000000000000000000000000
0000000000000000000000000000000000000000000000000000000000000000000000
0000000000000000000000000000000000000000000000000000000000000000000000
0000000000000000000000000000000000000000000000000000000000000000000000
0000000000000000000000000000000000000000000000000000000000000000000000
0000000000000000000000000000000000000000000000000000000000000000000000
0000000000000000000000000000000000000000000000000000000000000000000000
0000000000000000000000000000000000000000000000000000000000000000000000
0000000000000000000000000000000000000000000000000000000000000000000000
0000000000000000000000000000000000000000000000000000000000000000000000
0000000000000000000000000000000000000000000000000000000000000000000000
0000000000000000000000000000000000000000000000000000000000000000000000
0000000000000000000000000000000000000000000000000000000000000000000000
0000000000000000000000000000000000000000000000000000000000000000000000
0000000000000000000000000000000000000000000000000000000000000000000000
0000000000000000000000000000000000000000000000000000000000000000000000
0000000000000000000000000000000000000000000000000000000000000000000000
0000000000000000000000000000000000000000000000000000000000000000000000
0000000000000000000000000000000000000000000000000000000000000000000000
0000000000000000000000000000000000000000000000000000000000000000000000
0000000000000000000000000000000000000000000000000000000000000000000000
0000000000000000000000000000000000000000000000000000000000000000000000
0000000000000000000000000000000000000000000000000000000000000000000000
0000000000000000000000000000000000000000000000000000000000000000000000
0000000000000000000000000000000000000000000000000000000000000000000000
0000000000000000000000000000000000000000000000000000000000000000000000
0000000000000000000000000000000000000000000000000000000000000000000000
0000000000000000000000000000000000000000000000000000000000000000000000
0000000000000000000000000000000000000000000000000000000000000000000000
0000000000000000000000000000000000000000000000000000000000000000000000
0000000000000000000000000000000000000000000000000000000000000000000000
0000000000000000000000000000000000000000000000000000000000000000000000
0000000000000000000000000000000000000000000000000000000000000000000000
0000000000000000000000000000000000000000000000000000000000000000000000
0000000000000000000000000000000000000000000000000000000000000000000000
0000000000000000000000000000000000000000000000000000000000000000000000
0000000000000000000000000000000000000000000000000000000000000000000000
0000000000000000000000000000000000000000000000000000000000000000000000
0000000000000000000000000000000000000000000000000000000000000000000000
0000000000000000000000000000000000000000000000000000000000000000000000
0000000000000000000000000000000000000000000000000000000000000000000000
0000000000000000000000000000000000000000000000000000000000000000000000
0000000000000000000000000000000000000000000000000000000000000000000000
0000000000000000000000000000000000000000000000000000000000000000000000
0000000000000000000000000000000000000000000000000000000000000000000000
0000000000000000000000000000000000000000000000000000000000000000000000
0000000000000000000000000000000000000000000000000000000000000000000000
0000000000000000000000000000000000000000000000000000000000000000000000
0000000000000000000000000000000000000000000000000000000000000000000000
0000000000000000000000000000000000000000000000000000000000000000000000
0000000000000000000000000000000000000000000000000000000000000000000000
0000000000000000000000000000000000000000000000000000000000000000000000
0000000000000000000000000000000000000000000000000000000000000000000000
0000000000000000000000000000000000000000000000000000000000000000000000
0000000000000000000000000000000000000000000000000000000000000000000000
0000000000000000000000000000000000000000000000000000000000000000000000
0000000000000000000000000000000000000000000000000000000000000000000000
0000000000000000000000000000000000000000000000000000000000000000000000
0000000000000000000000000000000000000000000000000000000000000000000000
0000000000000000000000000000000000000000000000000000000000000000000000
0000000000000000000000000000000000000000000000000000000000000000000000
0000000000000000000000000000000000000000000000000000000000000000000000
0000000000000000000000000000000000000000000000000000000000000000000000
0000000000000000000000000000000000000000000000000000000000000000000000
0000000000000000000000000000000000000000000000000000000000000000000000
0000000000000000000000000000000000000000000000000000000000000000000000
0000000000000000000000000000000000000000000000000000000000000000000000
0000000000000000000000000000000000000000000000000000000000000000000000
0000000000000000000000000000000000000000000000000000000000001000010001
0000000000000000000000000000000000000000000000000000000000000000000000
0000000000000000000000000000000000000000000000000000000000000000000000
0000000000000000000000000000000000000000000001000000000000000001000000
1000000000000100010000001000011000000000001000000000000000000000000000
0000000000000011100000100001001000000000000000000000000000000000000000
0000000000000000000000000000000000000000000000000000000000000000000000
0000000000000000000000000000000000000000000000000000000000000000000000
0000000100000000000000000100000010000000000001001000000010000010000000
0000100000000000000000000000000000000000000001000100000100000100000000
0000000000000000000000000000000000000000000000000000000000000000000000
0000000000000000000000000000000000000000000000000000000000000000000000
0000000000000000000000000000000000000001110010010000000001001100111001
1100000101000011001110001001100111001110001100101100111001100101100000
0000001001001001010000000000110011000000000000000000000000000000000000
0000000000000000000000000000000000000000000000000000000000000000000000
0000000000000000000000000000000000000000000000000000000000000000000000
0100101001000000000101001010010100100001100001001010010010100101001010
0101001011000100101001011000000000000010100010010010011000010011000000
0000000000000000000000000000000000000000000000000000000000000000000000
0000000000000000000000000000000000000000000000000000000000000000000000
0000000000000000000000000000000001001010010000010001010010100101001000
0101000100101001001011110100101001011110100001001011110100000000000000
1001001001000011010001001100000000000000000000000000000000000000000000
0000000000000000000000000000000000000000000000000000000000000000000000
0000000000000000000000000000000000000000000000000000000000000000010010
1001000001000101001010010100100001001001001010010010100001001010010100
0010000100101000010000000000000001000101110011010011101101110000000000
0000000000000000000000000000000000000000000000000000000000000000000000
0000000000000000000000000000000000000000000000000000000000000000000000
0000000000000000000000000001110001110000001110001100100101001000010001
0011001001001001100100101110001100100000111001100100000000000000001110
0000000000000001001100000000000000000000000000000000000000000000000000
0000000000000000000000000000000000000000000000000000000000000000000000
0000000000000000000000000000000000000000000000000000000000000000000100
0000000000000000000000000000000000000000000000000000000000000000000000
0000100000000000000000000000000000000000000000010011000000000000000000
0000000000000000000000000000000000000000000000000000000000000000000000
0000000000000000000000000000000000000000000000000000000000000000000000
0000000000000000000000000001100000000000000000000000000000000000000000
0000000000000000000000000000000000110000000000000000000000000000000000
0000000000110011000000000000000000000000000000000000000000000000000000
0000000000000000000000000000000000000000000000000000000000000000000000
0000000000000000000000000000000000000000000000000000000000000000000000
0000000000000000000000000000000000000000000000000000000000000000000000
0000000000000000000000000000000000000000000000000000000000000000000000
0000000000000000000000000000000000000000000000000000000000000000000000
0000000000000000000000000000000000000000000000000000000000000000000000
0000000000000000000000000000000000000000000000000000000000000000000000
0000000000000000000000000000000000000000000000000000000000000000000000
0000000000000000000000000000000000000000000000000000000000000000000000
0000000000000000000000000000000000000000000000000000000000000000000000
0000000000000000000000000000000000000000000000000000000000000000000000
0000000000000000000000000000000000000000000000000000000000000000000000
0000000000000000000000000000000000000000000000000000000000000000000000
0000000000000000000000000000000000000000000000000000000000000000000000
0000000000000000000000000000000000000000000000000000000000000000000000
0000000000000000000000000000000000000000000000000000000000000000000000
0000000000000000000000000000000000000000000000000000000000000000000000
0000